X:55
T:Ha felmegyek
O:Tápiószele (Pest)
Q:"Moderato"
L:1/8
K:C
A,A,A,A, | DDED | C2B,2 | A,2 z2 |
EECE GG^FG | A2 F2 | E2 z2 |
EECE | GG^FG | AABA | E2 D2 | E2 z2 |
A,A,A,A, | DDED | C2B,2 | A,2 z2 |

